svgs/duotone/eggplant.svg

<svg xmlns="http://www.w3.org/2000/svg" viewBox="0 0 512 512"><!-- Font Awesome Pro 6.0.0-alpha2 by @fontawesome - https://fontawesome.com License - https://fontawesome.com/license (Commercial License) --><defs><style>.fa-secondary{opacity:.4}</style></defs><path d="M465.32 199.838C441.822 246.641 415.859 293.062 385.808 339.088C284.031 493.77 234.736 512.035 172.565 512.035C130.281 512.035 0 478.158 0 337.355C0 275.95 31.934 214.647 100.763 186.076C187.574 152.091 293.686 59.081 312.759 47.775C323.816 66.947 344.285 80 368.005 80C368.005 115.346 396.66 144 432.005 144C432.005 168.162 445.554 188.945 465.32 199.838Z" class="fa-secondary"/><path d="M511.994 24C511.994 30.141 509.65 36.281 504.963 40.969L490.926 55.006C494.188 62.686 496 71.129 496 80V208C460.654 208 432 179.346 432 144C396.654 144 368 115.346 368 80C332.654 80 304 51.346 304 16H432C440.867 16 449.309 17.811 456.986 21.07L471.025 7.031C475.713 2.344 481.854 0 487.994 0C501.703 0 511.994 11.21 511.994 24Z" class="fa-primary"/></svg>

<svg xmlns="http://www.w3.org/2000/svg" viewBox="0 0 512 512"><!--! Font Awesome Pro 6.3.0 by @fontawesome - https://fontawesome.com License - https://fontawesome.com/license (Commercial License) Copyright 2023 Fonticons, Inc. --><defs><style>.fa-secondary{opacity:.4}</style></defs><path class="fa-primary" d="M512 24c0 6.141-2.344 12.28-7.031 16.97l-14.04 14.04C494.2 62.69 496 71.13 496 80v128c-35.35 0-64-28.65-64-64c-35.35 0-64-28.65-64-64c-35.35 0-64-28.65-64-64h128c8.867 0 17.31 1.811 24.99 5.07l14.04-14.04C475.7 2.344 481.9 0 488 0C501.7 0 512 11.21 512 24z"/><path class="fa-secondary" d="M465.3 199.8c-23.5 46.8-49.46 93.22-79.51 139.3c-101.8 154.7-151.1 172.9-213.2 172.9c-42.28 0-172.6-33.85-172.6-174.7c0-61.41 31.93-122.7 100.8-151.3c86.81-33.98 192.9-126.1 211.1-138.3C323.8 66.95 344.3 80 368 80c0 35.35 28.65 64 64 64C432 168.2 445.6 188.9 465.3 199.8z"/></svg>
